X:1
T:Title
%%score { ( 1 2 5 ) | ( 3 4 ) }
L:1/8
Q:1/4=100
M:4/4
K:C
V:1 treble nm="Grand Piano"
V:2 treble 
V:5 treble 
V:3 bass 
V:4 bass 
V:1
 [EG]2 z2 z4 | z2 G4 z2 | [EG]2 z2 z4 | G6 z2 | c>c c>c [_EB]2 [E^F]2 | z2 G4 z2 | %6
w: R.~Frank~Lehman||||||
 G>^F G>B [Fd]2 [DFA]2 | d6 z2 | c2 z2 z4 | z2 G4 z2 | c>d e>d [EGc]2 [_B,E]2 | G6 z2 | %12
w: ||||||
 [Ec]>[Ec] [CE]>[CE] [CF]2 [EG]2 | [FA]2 [GB]2 [Gc]2 [Ad]2 | e>e G>G A2 d2 | [Ec]6 z2 | %16
w: ||||
 z2 z A G>A B>A | A2 G2 a2 g2 | G>A B>c d2 d2 | e6 z2 | A4 z4 | [FA]2 [Ad]2 [Ae]2 [Af]2 | %22
w: ||||||
 z4 z2 B2 | [Ec]6 z2 |] %24
w: ||
V:2
 c>d [EGc]2 [G,CEG]2 [G,_B,E]2 | [G,B,FG]2 [G,B,F]2 [G,B,F]2 [G,B,F]2 | %2
 c>d [EGc]2 [G,CEG]2 [G,_B,E]2 | [G,B,F]2 [G,B,F]2 [G,B,F]2 [B,F]2 | [EA]2 [EA]2 z4 | %5
 [^FA]2 z2 ^C2 C2 | x8 | [DG]2 [CD^F]2 [B,D=FG]2 z2 | [EG]->[EGd] [EGc]2 [G,CEG]2 [G,_B,E]2 | %9
 [G,B,FG]2 [G,B,F]2 [G,B,F]2 [G,B,F]2 | [EG]2 [EG]2 z4 | F2 [B,F]2 [B,F]2 [B,F]2 | x8 | x8 | x8 | %15
 x8 | G4 z4 | x8 | x8 | x8 | z2 z _B [FA]>[FB] [GA]>[GB] | x8 | e3 d c2 DF | x8 |] %24
V:3
 [C,G,]2 z z/ A/ C,2 ^C,2 | D,2 G,,2 D,2 G,,2 | [C,G,]2 z z/ A/ C,2 ^C,2 | D,2 G,,2 D,2 [G,,G,]2 | %4
 [A,,A,]2 [A,,A,]2 [B,,A,B,]2 [B,,B,]2 | [E,B,]2 [E,B,E]2 [_E,_B,]2 [E,B,]2 | %6
 [D,G,B,D]2 [D,G,B,D]2 [D,A,D]2 [C,C]2 | [B,,B,]2 [A,,A,]2 [G,,G,]F,E,D, | %8
 [C,G,]2 z z/ A/ C,2 ^C,2 | D,2 G,,2 D,2 G,,2 | [C,G,]2 [G,,G,]2 [C,G,]2 [^C,G,]2 | %11
 [D,G,B,]2 [G,,G,]2 [D,G,]2 [G,,G,]2 | [C,G,]>[C,G,] [_B,,G,]>[B,,G,] [A,,F,]2 [C,C]2 | %13
 [F,C]2 [D,D]2 [E,C]2 [F,C]2 | [G,CG]>[G,CG] [G,CE]>[G,CE] [G,B,F]2 [G,F]2 | [C,G,]6 z2 | %16
 [G,B,F]2 [G,B,]2 [G,B,F]>[G,CF] [G,DF]>[G,CF] | [G,B,F]2 [G,B,F]2 [Bf]2 [Bf]2 | %18
 [G,B,]>[G,C^F] [G,D=F]>[G,CE] [G,B,G]2 [G,B,G]2 | [CG]6 z2 | %20
 [F,CF]2 [E,^C]2 [D,D]>[D,D] [E,C]>[E,C] | [F,D]2 [F,D]2 [E,^C]2 [D,D]2 | %22
 [G,G]3 [G,F][K:bass] [G,E]2 [G,,G,]2 | [C,G,]6 z2 |] %24
V:4
 z2 [G,,G,]2 z4 | x8 | z2 [G,,G,]2 z4 | x8 | x8 | x8 | x8 | x8 | z2 [G,,G,]2 z4 | x8 | x8 | x8 | %12
 x8 | x8 | x8 | x8 | x8 | x8 | x8 | x8 | x8 | x8 | x4[K:bass] x4 | x8 |] %24
V:5
 x8 | x8 | x8 | x8 | x8 | x8 | x8 | x8 | x8 | x8 | x8 | x8 | x8 | x8 | x8 | x8 | z2 F2 z4 | x8 | %18
 x8 | x8 | z2 G2 z4 | x8 | x8 | x8 |] %24

